src/SVG/facil_demostracion.svg

<?xml version="1.0" encoding="utf-8"?>
<!-- Generator: Adobe Illustrator 15.0.0, SVG Export Plug-In . SVG Version: 6.00 Build 0)  -->
<!DOCTYPE svg PUBLIC "-//W3C//DTD SVG 1.1//EN" "http://www.w3.org/Graphics/SVG/1.1/DTD/svg11.dtd">
<svg version="1.1" id="Layer_1" xmlns="http://www.w3.org/2000/svg" xmlns:xlink="http://www.w3.org/1999/xlink" x="0px" y="0px"
	 width="612px" height="792px" viewBox="0 0 612 792" enable-background="new 0 0 612 792" xml:space="preserve">
<g>
	<path fill="#6D8D24" d="M327.646,520.89v-32.218H467.56V240.347H143.027v248.325H282.94v32.218H145.762v31.371h323.291V520.89
		H327.646z M176.885,274.205h256.812v180.622H176.885V274.205L176.885,274.205z"/>
	<path fill="#6D8D24" d="M205.109,435.06h200.372V293.951H205.109V435.06z M238.976,327.826H371.61v73.363H238.976V327.826z"/>
</g>
</svg>

<?xml version="1.0" encoding="UTF-8" standalone="no"?>
<!-- Generator: Adobe Illustrator 15.0.0, SVG Export Plug-In . SVG Version: 6.00 Build 0)  -->

<svg
   xmlns:dc="http://purl.org/dc/elements/1.1/"
   xmlns:cc="http://creativecommons.org/ns#"
   xmlns:rdf="http://www.w3.org/1999/02/22-rdf-syntax-ns#"
   xmlns:svg="http://www.w3.org/2000/svg"
   xmlns="http://www.w3.org/2000/svg"
   xmlns:sodipodi="http://sodipodi.sourceforge.net/DTD/sodipodi-0.dtd"
   xmlns:inkscape="http://www.inkscape.org/namespaces/inkscape"
   version="1.1"
   id="Layer_1"
   x="0px"
   y="0px"
   width="326.026"
   height="311.914"
   viewBox="0 0 326.026 311.914"
   enable-background="new 0 0 612 792"
   xml:space="preserve"
   inkscape:version="0.48.3.1 r9886"
   sodipodi:docname="facil_demostracion.svg"><metadata
   id="metadata13"><rdf:RDF><cc:Work
       rdf:about=""><dc:format>image/svg+xml</dc:format><dc:type
         rdf:resource="http://purl.org/dc/dcmitype/StillImage" /></cc:Work></rdf:RDF></metadata><defs
   id="defs11" /><sodipodi:namedview
   pagecolor="#ffffff"
   bordercolor="#666666"
   borderopacity="1"
   objecttolerance="10"
   gridtolerance="10"
   guidetolerance="10"
   inkscape:pageopacity="0"
   inkscape:pageshadow="2"
   inkscape:window-width="640"
   inkscape:window-height="480"
   id="namedview9"
   showgrid="false"
   fit-margin-top="0"
   fit-margin-left="0"
   fit-margin-right="0"
   fit-margin-bottom="0"
   inkscape:zoom="0.2979798"
   inkscape:cx="162.973"
   inkscape:cy="156.261"
   inkscape:window-x="0"
   inkscape:window-y="27"
   inkscape:window-maximized="0"
   inkscape:current-layer="Layer_1" />
<g
   id="g3"
   transform="translate(-143.027,-240.347)">
	<path
   d="M 327.646,520.89 V 488.672 H 467.56 V 240.347 H 143.027 V 488.672 H 282.94 V 520.89 H 145.762 v 31.371 H 469.053 V 520.89 H 327.646 z M 176.885,274.205 H 433.697 V 454.827 H 176.885 V 274.205 l 0,0 z"
   id="path5"
   inkscape:connector-curvature="0"
   style="fill:#6d8d24" />
	<path
   d="M 205.109,435.06 H 405.481 V 293.951 H 205.109 V 435.06 z M 238.976,327.826 H 371.61 v 73.363 H 238.976 v -73.363 z"
   id="path7"
   inkscape:connector-curvature="0"
   style="fill:#6d8d24" />
</g>
</svg>
